!!!OTL: The Farmer in the Dell
!!!COM: unknown
!!!ODT: unknown
!!!YOR: The Folksong Fake Book
!!!YOY: 2000
!!!AST: Children's song
!!!YEC: Brian Luke, 2001
**kern	**harm
*k[f#c#]	*k[f#c#]
*M6/8	*M6/8
*D:	*D:
*>A	*>A
8A	.
=1	=1
4d	I
8d	.
4d	.
8d	.
=2	=2
[4.d	.
4d]	.
8e	.
=3	=3
4f#	.
8f#	.
4f#	.
8f#	.
=4	=4
2.f#	.
=5	=5
4.a	.
4a	.
8b	.
=6	=6
4a	.
8f#	.
4d	.
8e	.
=7	=7
4f#	V
8f#	.
4e	.
8e	.
=8	=8
[4.d	I;
4d]	.
*-	*-
